X:92
T:Ewe
Z: id:dc-reel-84
M:C
L:1/8
K:G Major
GF|DGGF DGGE|=F2AF cFAF|DGGF G2eg|fdcA BGAF|!
DGGF DGGE|=F2AF cFAF|DGGF G2eg|fdcA BG:|!
Bd|g2bg dgbg|f2af dfaf|g2bg dgbg|agfa g2ga|!
bgaf gdde|fdcA BGBc|dggf g2ag|fdcA BG:|!

